ufans-frontend-package/public/assets/images/video-call/mic.svg

<svg width="100" height="150" viewBox="0 0 100 150" fill="none" xmlns="http://www.w3.org/2000/svg">
<g clip-path="url(#clip0_1412_12)">
<path d="M72.9922 25.3878V63.7425C72.9922 96.6492 27.0081 96.6492 27.0081 63.7425V25.3878C27.0081 -8.45739 72.9922 -8.45739 72.9922 25.3878ZM55.7101 118.014V144.059C55.6422 145.528 55.011 146.914 53.9476 147.93C52.8842 148.945 51.4705 149.512 50.0002 149.512C48.5299 149.512 47.1161 148.945 46.0527 147.93C44.9893 146.914 44.3581 145.528 44.2902 144.059V117.953C39.0367 117.345 33.9141 115.901 29.1166 113.675C23.756 111.182 18.8724 107.771 14.6863 103.596L14.6254 103.487C10.0056 98.865 6.32972 93.3884 3.80273 87.3622C1.28518 81.3059 -0.0072341 74.8107 0.000169191 68.2519C-0.00856918 67.1184 0.321363 66.0081 0.947685 65.0633C1.57401 64.1184 2.46819 63.3822 3.51563 62.9488C4.56308 62.5154 5.71607 62.4047 6.82686 62.6308C7.93764 62.8568 8.95562 63.4095 9.75032 64.2178L9.8722 64.3397C10.8678 65.3989 11.4215 66.7982 11.42 68.2519C11.4126 73.2967 12.4069 78.2927 14.3451 82.9503C18.3043 92.4409 25.8515 99.9838 35.3445 103.937C40.0044 105.876 45.0018 106.874 50.0489 106.874C55.0961 106.874 60.0934 105.876 64.7534 103.937C69.4433 101.981 73.7041 99.124 77.2945 95.528L77.392 95.4427C80.9412 91.8666 83.7639 87.6367 85.704 82.9868C87.6303 78.3145 88.608 73.3057 88.5803 68.2519C88.6482 66.7832 89.2794 65.3971 90.3428 64.3817C91.4062 63.3663 92.8199 62.7998 94.2902 62.7998C95.7605 62.7998 97.1743 63.3663 98.2377 64.3817C99.3011 65.3971 99.9323 66.7832 100 68.2519C100.005 74.7986 98.7129 81.2814 96.1976 87.3257C93.6653 93.4069 89.968 98.9342 85.314 103.596L85.2043 103.694C81.047 107.824 76.2008 111.198 70.8838 113.663C66.0813 115.887 60.955 117.331 55.6979 117.941L55.7101 118.014Z" fill="#6661E7"/>
</g>
<defs>
<clipPath id="clip0_1412_12">
<rect width="100" height="150" fill="white"/>
</clipPath>
</defs>
</svg>

<svg xmlns="http://www.w3.org/2000/svg" xmlns:xlink="http://www.w3.org/1999/xlink" width="100" height="150" viewBox="0 0 100 150">
  <defs>
    <clipPath id="clip-path">
      <rect id="Rectangle_1" data-name="Rectangle 1" width="100" height="150" fill="#e44499"/>
    </clipPath>
  </defs>
  <g id="mic" clip-path="url(#clip-path)">
    <path id="Path_1" data-name="Path 1" d="M72.992,25.388V63.743c0,32.907-45.984,32.907-45.984,0V25.388C27.008-8.457,72.992-8.457,72.992,25.388ZM55.71,118.014v26.045a5.716,5.716,0,0,1-11.42,0V117.953a49.6,49.6,0,0,1-15.174-4.278A50.726,50.726,0,0,1,14.686,103.6l-.061-.109A50.354,50.354,0,0,1,3.8,87.362,49.64,49.64,0,0,1,0,68.252a5.692,5.692,0,0,1,9.75-4.034l.122.122a5.7,5.7,0,0,1,1.548,3.912,38.112,38.112,0,0,0,2.925,14.7,39,39,0,0,0,21,20.987,38.278,38.278,0,0,0,29.409,0,38.86,38.86,0,0,0,12.541-8.409l.1-.085A39,39,0,0,0,85.7,82.987,38.11,38.11,0,0,0,88.58,68.252a5.716,5.716,0,0,1,11.42,0,49.546,49.546,0,0,1-3.8,19.074A50.514,50.514,0,0,1,85.314,103.6l-.11.1a50.4,50.4,0,0,1-14.321,9.969A49.8,49.8,0,0,1,55.7,117.941Z" fill="#e44499"/>
  </g>
</svg>
